X:1
T:Title
%%score { ( 1 3 ) | ( 2 4 ) }
L:1/8
Q:1/4=100
M:3/4
K:F
V:1 treble nm="Grand Piano"
V:3 treble 
V:2 bass 
V:4 bass 
V:1
 C>C F2 G2 | A>[Ac] d2 c2 | (3FE[A,CF] [CFA]2 C2 | [CFA]>[B,EG] F4 | C>C F2 G2 | A>[Ac] d2 c2 | %6
w: Tom.~C.~Neal * * *||||||
 (3FE[A,CF] [CEG]2 C2 | [CFA]>[B,EG] [A,F]4 |[M:4/4] z2 G6 | z2 A6 | (3AGA [Ac]2 [Ac]2 [GB]2 | %11
w: |||||
 [EG]2 A6 | z2 G6 | z2 A6 | (3AGA [Ac]2 [GB]2 [FA]2 |[M:3/4] [EG]2 F4- |[M:1/4] F2 | (3FEF | %18
w: |||||||
[M:4/4] G6 z2 | A6 z2 | [Ac]2 [Ac]2 [GB]2 [EG]2 | A6 (3FEF | G6 z2 | A6 z2 | %24
w: ||||||
 [Ac]2 [GB]2 [FA]2 [EG]2 |[M:3/4] F6 |] %26
w: ||
V:2
 [F,A,]>[F,A,] [F,A,C]2 [F,B,C]2 | [F,CF]>[F,C] [F,B,F]2 [F,A,F]2 | (3:2:2[F,A,C]2 F, C,2 C,2 | %3
 C,>C, [F,A,]4 | [F,A,]>[F,A,] [F,A,C]2 [F,B,C]2 | [F,CF]>[F,C] [F,B,F]2 [F,A,F]2 | %6
 (3:2:2[F,A,C]2 F, C,2 C,2 | C,>C, F,4 |[M:4/4] z4 [C,C]>[C,C] [C,C]2 | z4 [F,C]>[F,C] [F,C]2 | %10
 F2 z2 z4 | [C,C]2 [F,CF]6 | z4 [C,C]>[C,C] [C,C]2 | z4 [F,C]>[F,C] [F,C]2 | %14
 (3:2:2[F,CF]2 [F,CF] [C,C]2 [C,C]2 [C,C]2 |[M:3/4] [C,B,]2 [F,A,]4- |[M:1/4] [F,A,]2 | z2 | %18
[M:4/4] z2 [C,C]>[C,C] [C,C]2 z2 | z4 z2 F2 | [C,C]2 [C,C]2 [C,C]2 [C,C]2 | [F,CF]6 z2 | %22
 z2 [C,C]>[C,C] [C,C]2 z2 | z2 [F,C]>[F,C] [F,C]2 (3:2:2[F,CF]2 [F,CF] | %24
 [C,C]2 [C,C]2 [C,C]2 [C,B,]2 |[M:3/4] [F,A,]6 |] %26
V:3
 x6 | x6 | x6 | x6 | x6 | x6 | x6 | x6 |[M:4/4] (3FEF z2 E>E E2 | (3GFG z2 F>F F2 | x8 | x8 | %12
 (3FEF z2 E>E E2 | (3GFG z2 F>F F2 | x8 |[M:3/4] x6 |[M:1/4] x2 | x2 |[M:4/4] z2 E>E E2 (3GFG | %19
 z2 F>F F2 (3AGA | x8 | x8 | z2 E>E E2 (3GFG | z2 F>F F2 (3AGA | x8 |[M:3/4] x6 |] %26
V:4
 x6 | x6 | x6 | x6 | x6 | x6 | x6 | x6 |[M:4/4] x8 | x8 | (3:2:2[F,C]2 [F,C] [C,C]2 [C,C]2 [C,C]2 | %11
 x8 | x8 | x8 | x8 |[M:3/4] x6 |[M:1/4] x2 | x2 |[M:4/4] x8 | %19
 z2 [F,C]>[F,C] [F,C]2 (3:2:2[F,C]2 [F,C] | x8 | x8 | x8 | x8 | x8 |[M:3/4] x6 |] %26

